X:76
T: Mihály Bíró
O: Gajcsána (Tekucs), 1929
Q: 1/4=168
M:4/4
L:1/4
K:G
dcB>A | c/B/ A d z | 
dcB>G | A/F/ G A z | 
ABG>D | G/F/ E A z | 
ABGD | G/=F/ E E z | 

